dist/svgs/unicons/line/server-connection.svg

<svg xmlns="http://www.w3.org/2000/svg" viewBox="0 0 24 24"><path d="M11 13a1 1 0 101 1 1 1 0 00-1-1zm-4 0a1 1 0 101 1 1 1 0 00-1-1zm15-9a3 3 0 00-3-3H5a3 3 0 00-3 3v4a3 3 0 00.78 2A3 3 0 002 12v4a3 3 0 003 3h6v2H3a1 1 0 000 2h18a1 1 0 000-2h-8v-2h6a3 3 0 003-3v-4a3 3 0 00-.78-2A3 3 0 0022 8zm-2 12a1 1 0 01-1 1H5a1 1 0 01-1-1v-4a1 1 0 011-1h14a1 1 0 011 1zm0-8a1 1 0 01-1 1H5a1 1 0 01-1-1V4a1 1 0 011-1h14a1 1 0 011 1zm-9-3a1 1 0 101 1 1 1 0 00-1-1zM7 5a1 1 0 101 1 1 1 0 00-1-1z"/></svg>

<svg xmlns="http://www.w3.org/2000/svg" viewBox="0 0 24 24"><path d="M11,13a1,1,0,1,0,1,1A1,1,0,0,0,11,13ZM7,13a1,1,0,1,0,1,1A1,1,0,0,0,7,13ZM22,4a3,3,0,0,0-3-3H5A3,3,0,0,0,2,4V8a3,3,0,0,0,.78,2A3,3,0,0,0,2,12v4a3,3,0,0,0,3,3h6v2H3a1,1,0,0,0,0,2H21a1,1,0,0,0,0-2H13V19h6a3,3,0,0,0,3-3V12a3,3,0,0,0-.78-2A3,3,0,0,0,22,8ZM20,16a1,1,0,0,1-1,1H5a1,1,0,0,1-1-1V12a1,1,0,0,1,1-1H19a1,1,0,0,1,1,1Zm0-8a1,1,0,0,1-1,1H5A1,1,0,0,1,4,8V4A1,1,0,0,1,5,3H19a1,1,0,0,1,1,1ZM11,5a1,1,0,1,0,1,1A1,1,0,0,0,11,5ZM7,5A1,1,0,1,0,8,6,1,1,0,0,0,7,5Z"/></svg>
